X:109
T:Earl of Rothoss Gavot. SenH.109
C:"John Casson"
C:in Hand B (Humph. Senhouse)
Q:1/4=100
M:4/4
N:Perhaps the 10th Earl of Rothes. Rothoss was the archaic spelling of Rothes.
L:1/4
B:Humphrey Senhouse MS, 1747, Cumberland
Z:Village Music Project 2017 Anne Wride
K:G
GD | G/F/E/D/ EC | F/E/D/C/ B,A, | CEDD | G,2 dd |
{c}BBee | ABc/B/A/G/ | FG A/G/F/A/ | G2 :|
|: GG |c/B/A/G/FE | B/A/G/F/EB | c/B/A/c/ BB, | E2gg |
(gf)de | e^dga/b/ | ^de/f/f>e | eE/F/GD |
G/F/E/D/ EC | F/E/D/C/ CA, | E/D/C/B,/ A,G, | G,/f/g/a/ bb |
bagg | gfgB | Aggf | gg/f/fC/B,/ |
A,f/e/dB,/A,/ | G,e/d/ c/B/A/G/ | F>G A/G/F/A/ | Gg/f/eB,/A,/ |A,f/e/d B,/A,/
G, e/d/ c/B/A/G/ | ^F>B A/G/F/A/ | G2 :|

